X: 706
T: Green Garters   #2
R: reel
%S: s:2 b:11(5+6)
B: Francis O'Neill: "The Dance Music of Ireland" (1907) #706
Z: Frank Nordberg - http://www.musicaviva.com
F: http://www.musicaviva.com/abc/tunes/ireland/oneill-1001/0706/oneill-1001-0706-1.abc
N: Compacted via repeats and multiple endings [JC]
M: C|
L: 1/8
K: D
"^A"|: d2(fd) Adfd | d2 (fa) gece | d2 (fd) Adf [1 d | edcd efge :|[2 a | gecd (ed)d2H |]
"^B"|: agfg afdf | a2fd efge |[1 agfg afdf | edcd efge :|[2 afge fdec | ABcd efg"_D.C."e |]
